apps/64/system-software-install.svg

<?xml version="1.0" encoding="UTF-8" standalone="no"?>
<svg
   xmlns:dc="http://purl.org/dc/elements/1.1/"
   xmlns:cc="http://creativecommons.org/ns#"
   xmlns:rdf="http://www.w3.org/1999/02/22-rdf-syntax-ns#"
   xmlns:svg="http://www.w3.org/2000/svg"
   xmlns="http://www.w3.org/2000/svg"
   xmlns:xlink="http://www.w3.org/1999/xlink"
   id="svg6333"
   height="64"
   width="64"
   version="1.1">
  <defs
     id="defs6335">
    <linearGradient
       gradientTransform="translate(-130,1.759402e-6)"
       gradientUnits="userSpaceOnUse"
       xlink:href="#linearGradient5803"
       id="linearGradient5809"
       y2="54.780239"
       x2="167.98311"
       y1="8.50811"
       x1="167.98311" />
    <linearGradient
       id="linearGradient5803">
      <stop
         offset="0"
         style="stop-color:#fff5ef;stop-opacity:1"
         id="stop5805" />
      <stop
         offset="1"
         style="stop-color:#fef8dd;stop-opacity:1"
         id="stop5807" />
    </linearGradient>
    <linearGradient
       gradientTransform="matrix(1.4102564,0,0,1.4102564,0.391129,-2.2559982)"
       gradientUnits="userSpaceOnUse"
       xlink:href="#linearGradient3895-9-0-3-5-2-0-4-9"
       id="linearGradient5801"
       y2="39.150768"
       x2="27.096104"
       y1="10.880992"
       x1="27.096104" />
    <linearGradient
       id="linearGradient3895-9-0-3-5-2-0-4-9">
      <stop
         offset="0"
         style="stop-color:#dc5639;stop-opacity:1"
         id="stop3897-0-5-7-89-6-6-7-0" />
      <stop
         offset="1"
         style="stop-color:#9d0f0f;stop-opacity:1"
         id="stop3899-8-7-06-3-8-3-8-0" />
    </linearGradient>
    <linearGradient
       gradientTransform="matrix(1.4324324,0,0,1.4362832,-2.378381,-2.4707782)"
       gradientUnits="userSpaceOnUse"
       xlink:href="#linearGradient3924-2-2-5-8"
       id="linearGradient3381-5-4"
       y2="43"
       x2="23.99999"
       y1="4.999989"
       x1="23.99999" />
    <linearGradient
       id="linearGradient3924-2-2-5-8">
      <stop
         offset="0"
         style="stop-color:#ffffff;stop-opacity:1"
         id="stop3926-9-4-9-6" />
      <stop
         offset="0.06316455"
         style="stop-color:#ffffff;stop-opacity:0.23529412"
         id="stop3928-9-8-6-5" />
      <stop
         offset="0.95056331"
         style="stop-color:#ffffff;stop-opacity:0.15686275"
         id="stop3930-3-5-1-7" />
      <stop
         offset="1"
         style="stop-color:#ffffff;stop-opacity:0.39215687"
         id="stop3932-8-0-4-8" />
    </linearGradient>
    <radialGradient
       gradientTransform="matrix(0,13.393984,-16.443533,0,124.90205,-114.89368)"
       gradientUnits="userSpaceOnUse"
       xlink:href="#linearGradient2867-449-88-871-390-598-476-591-434-148-57-177-8-3-3-6-4-8-8-8"
       id="radialGradient3402-7-1-6"
       fy="9.9571075"
       fx="6.2001843"
       r="12.671875"
       cy="9.9571075"
       cx="6.7304144" />
    <linearGradient
       id="linearGradient2867-449-88-871-390-598-476-591-434-148-57-177-8-3-3-6-4-8-8-8">
      <stop
         offset="0"
         style="stop-color:#ffcd7d;stop-opacity:1"
         id="stop3750-1-0-7-6-6-1-3-9" />
      <stop
         offset="0.26238"
         style="stop-color:#fc8f36;stop-opacity:1"
         id="stop3752-3-7-4-0-32-8-923-0" />
      <stop
         offset="0.704952"
         style="stop-color:#e23a0e;stop-opacity:1"
         id="stop3754-1-8-5-2-7-6-7-1" />
      <stop
         offset="1"
         style="stop-color:#ac441f;stop-opacity:1"
         id="stop3756-1-6-2-6-6-1-96-6" />
    </linearGradient>
    <radialGradient
       gradientTransform="matrix(2.003784,0,0,1.4,27.98813,-17.4)"
       gradientUnits="userSpaceOnUse"
       xlink:href="#linearGradient3688-166-749-4-0-3-8"
       id="radialGradient3337-2-2"
       fy="43.5"
       fx="4.9929786"
       r="2.5"
       cy="43.5"
       cx="4.9929786" />
    <linearGradient
       id="linearGradient3688-166-749-4-0-3-8">
      <stop
         offset="0"
         style="stop-color:#181818;stop-opacity:1"
         id="stop2883-4-0-1-8" />
      <stop
         offset="1"
         style="stop-color:#181818;stop-opacity:0"
         id="stop2885-9-2-9-6" />
    </linearGradient>
    <radialGradient
       gradientTransform="matrix(2.003784,0,0,1.4,-20.01187,-104.4)"
       gradientUnits="userSpaceOnUse"
       xlink:href="#linearGradient3688-464-309-9-2-4-2"
       id="radialGradient3339-1-4"
       fy="43.5"
       fx="4.9929786"
       r="2.5"
       cy="43.5"
       cx="4.9929786" />
    <linearGradient
       id="linearGradient3688-464-309-9-2-4-2">
      <stop
         offset="0"
         style="stop-color:#181818;stop-opacity:1"
         id="stop2889-7-9-6-9" />
      <stop
         offset="1"
         style="stop-color:#181818;stop-opacity:0"
         id="stop2891-6-6-1-7" />
    </linearGradient>
    <linearGradient
       id="linearGradient3702-501-757-8-4-1-1">
      <stop
         offset="0"
         style="stop-color:#181818;stop-opacity:0"
         id="stop2895-8-9-9-1" />
      <stop
         offset="0.5"
         style="stop-color:#181818;stop-opacity:1"
         id="stop2897-7-8-7-7" />
      <stop
         offset="1"
         style="stop-color:#181818;stop-opacity:0"
         id="stop2899-4-5-1-5" />
    </linearGradient>
    <linearGradient
       gradientUnits="userSpaceOnUse"
       xlink:href="#linearGradient3702-501-757-8-4-1-1"
       id="linearGradient6394"
       y2="39.999443"
       x2="25.058096"
       y1="47.027729"
       x1="25.058096" />
    <linearGradient
       x1="167.98311"
       y1="8.50811"
       x2="167.98311"
       y2="54.780239"
       id="linearGradient5414"
       xlink:href="#linearGradient5803"
       gradientUnits="userSpaceOnUse"
       gradientTransform="matrix(0.71090703,0,0,0.71090703,-91.334988,2.139763)" />
    <linearGradient
       x1="23.99999"
       y1="4.999989"
       x2="23.99999"
       y2="43"
       id="linearGradient3058"
       xlink:href="#linearGradient3924-2-2-5-8"
       gradientUnits="userSpaceOnUse"
       gradientTransform="translate(-54.836255,10.850489)" />
    <radialGradient
       cx="7.8500957"
       cy="9.9571075"
       r="12.671875"
       fx="7.3198657"
       fy="9.9571075"
       id="radialGradient5521-1"
       xlink:href="#linearGradient2867-449-88-871-390-598-476-591-434-148-57-177-3-8"
       gradientUnits="userSpaceOnUse"
       gradientTransform="matrix(0,8.3467704,-16.443533,0,196.90203,-78.651143)" />
    <radialGradient
       cx="4.9929786"
       cy="43.5"
       r="2.5"
       fx="4.9929786"
       fy="43.5"
       id="radialGradient3013"
       xlink:href="#linearGradient3688-166-749-4-0-3-8"
       gradientUnits="userSpaceOnUse"
       gradientTransform="matrix(2.003784,0,0,1.4,27.98813,-17.4)" />
    <radialGradient
       cx="4.9929786"
       cy="43.5"
       r="2.5"
       fx="4.9929786"
       fy="43.5"
       id="radialGradient3015"
       xlink:href="#linearGradient3688-166-749-4-0-3-8"
       gradientUnits="userSpaceOnUse"
       gradientTransform="matrix(2.003784,0,0,1.4,-20.01187,-104.4)" />
    <linearGradient
       x1="25.058096"
       y1="47.027729"
       x2="25.058096"
       y2="39.999443"
       id="linearGradient6647"
       xlink:href="#linearGradient3702-501-757-8-4-1-1"
       gradientUnits="userSpaceOnUse" />
    <linearGradient
       id="linearGradient4168">
      <stop
         offset="0"
         style="stop-color:#f8b17e;stop-opacity:1"
         id="stop4170" />
      <stop
         offset="0.23208089"
         style="stop-color:#e35d4f;stop-opacity:1"
         id="stop4172" />
      <stop
         offset="0.5908742"
         style="stop-color:#c6262e;stop-opacity:1"
         id="stop4174" />
      <stop
         offset="1"
         style="stop-color:#690b54;stop-opacity:1"
         id="stop4176" />
    </linearGradient>
    <linearGradient
       id="linearGradient3957">
      <stop
         offset="0"
         style="stop-color:#ffffff;stop-opacity:1"
         id="stop3959" />
      <stop
         offset="1"
         style="stop-color:#c1c1c1;stop-opacity:1"
         id="stop3961" />
    </linearGradient>
    <linearGradient
       id="linearGradient4011">
      <stop
         offset="0"
         style="stop-color:#ffffff;stop-opacity:1"
         id="stop4013" />
      <stop
         offset="0.507761"
         style="stop-color:#ffffff;stop-opacity:0.23529412"
         id="stop4015" />
      <stop
         offset="0.83456558"
         style="stop-color:#ffffff;stop-opacity:0.15686275"
         id="stop4017" />
      <stop
         offset="1"
         style="stop-color:#ffffff;stop-opacity:0.39215687"
         id="stop4019" />
    </linearGradient>
    <linearGradient
       id="linearGradient2867-449-88-871-390-598-476-591-434-148-57-177-3-8">
      <stop
         offset="0"
         style="stop-color:#90dbec;stop-opacity:1"
         id="stop3750-8-9" />
      <stop
         offset="0.26238"
         style="stop-color:#42baea;stop-opacity:1"
         id="stop3752-3-2" />
      <stop
         offset="0.704952"
         style="stop-color:#3689e6;stop-opacity:1"
         id="stop3754-7-2" />
      <stop
         offset="1"
         style="stop-color:#2b63a0;stop-opacity:1"
         id="stop3756-9-3" />
    </linearGradient>
    <linearGradient
       id="linearGradient3820-7-2-1">
      <stop
         offset="0"
         style="stop-color:#3d3d3d;stop-opacity:1"
         id="stop3822-2-6-3" />
      <stop
         offset="0.5"
         style="stop-color:#686868;stop-opacity:0.49803922"
         id="stop3864-8-7-7" />
      <stop
         offset="1"
         style="stop-color:#686868;stop-opacity:0"
         id="stop3824-1-2-5" />
    </linearGradient>
    <linearGradient
       gradientTransform="matrix(1.054054,0,0,1.054054,-102.25507,-3.7285663)"
       gradientUnits="userSpaceOnUse"
       xlink:href="#linearGradient4011"
       id="linearGradient3012"
       y2="44.340794"
       x2="71.204407"
       y1="6.2375584"
       x1="71.204407" />
    <radialGradient
       gradientTransform="matrix(0,2.4988347,-2.6434689,-6.8014435e-8,-4.307254,-13.181133)"
       gradientUnits="userSpaceOnUse"
       xlink:href="#linearGradient2867-449-88-871-390-598-476-591-434-148-57-177-3-8"
       id="radialGradient3015-5"
       fy="8.4497671"
       fx="3.9722471"
       r="19.99999"
       cy="8.4497671"
       cx="3.9722471" />
    <radialGradient
       gradientTransform="matrix(0.27083381,0,0,0.08762273,-53.49914,24.186563)"
       gradientUnits="userSpaceOnUse"
       xlink:href="#linearGradient3820-7-2-1"
       id="radialGradient3018"
       fy="186.17059"
       fx="99.157013"
       r="62.769119"
       cy="186.17059"
       cx="99.157013" />
    <linearGradient
       gradientUnits="userSpaceOnUse"
       xlink:href="#linearGradient4168"
       id="linearGradient3951"
       y2="22.986004"
       x2="33.447899"
       y1="15.149301"
       x1="27.92535"
       gradientTransform="translate(-50.644068,-1.0006654)" />
    <linearGradient
       gradientUnits="userSpaceOnUse"
       xlink:href="#linearGradient3957"
       id="linearGradient3963"
       y2="26"
       x2="24"
       y1="22"
       x1="24"
       gradientTransform="matrix(0.75,0,0,0.75,-44.644068,4.9993337)" />
    <linearGradient
       gradientUnits="userSpaceOnUse"
       xlink:href="#linearGradient3957"
       id="linearGradient3963-7"
       y2="27.343702"
       x2="22.805599"
       y1="25.433903"
       x1="21.013996"
       gradientTransform="translate(-50.644068,-1.0006654)" />
    <radialGradient
       gradientTransform="matrix(0.27083381,0,0,0.08762273,69.882216,24.500789)"
       gradientUnits="userSpaceOnUse"
       xlink:href="#linearGradient3820-7-2-1"
       id="radialGradient3018-3"
       fy="186.17059"
       fx="99.157013"
       r="62.769119"
       cy="186.17059"
       cx="99.157013" />
    <linearGradient
       id="linearGradient8838-4">
      <stop
         offset="0"
         style="stop-color:#000000;stop-opacity:1"
         id="stop8840-4" />
      <stop
         offset="1"
         style="stop-color:#000000;stop-opacity:0"
         id="stop8842-8" />
    </linearGradient>
    <linearGradient
       gradientTransform="matrix(0.5135135,0,0,0.5135135,71.901156,22.292277)"
       gradientUnits="userSpaceOnUse"
       xlink:href="#linearGradient4011"
       id="linearGradient3741"
       y2="42.883553"
       x2="71.204407"
       y1="7.8309216"
       x1="71.204407" />
    <radialGradient
       gradientTransform="matrix(1.1294118,0,0,0.2823525,38.007874,43.007679)"
       gradientUnits="userSpaceOnUse"
       xlink:href="#linearGradient8838-4"
       id="radialGradient3748"
       fy="4.625"
       fx="62.625"
       r="10.625"
       cy="4.625"
       cx="62.625" />
    <linearGradient
       id="linearGradient4632-92-3-0-8-1-6-6">
      <stop
         offset="0"
         style="stop-color:#fafafa;stop-opacity:1"
         id="stop4634-68-8-0-2-9-1-1" />
      <stop
         offset="1"
         style="stop-color:#e1e1e1;stop-opacity:1"
         id="stop4636-8-21-7-1-4-9-4" />
    </linearGradient>
  </defs>
  <metadata
     id="metadata6338">
    <rdf:RDF>
      <cc:Work
         rdf:about="">
        <dc:format>image/svg+xml</dc:format>
        <dc:type
           rdf:resource="http://purl.org/dc/dcmitype/StillImage" />
        <dc:title />
      </cc:Work>
    </rdf:RDF>
  </metadata>
  <g
     transform="matrix(1.5789502,0,0,0.7142857,-5.894751,27.928572)"
     id="g3712-8-2-4-4"
     style="opacity:0.6">
    <rect
       width="5"
       height="7"
       x="38"
       y="40"
       id="rect2801-5-5-7-9"
       style="fill:url(#radialGradient3337-2-2);fill-opacity:1;stroke:none" />
    <rect
       width="5"
       height="7"
       x="-10"
       y="-47"
       transform="scale(-1,-1)"
       id="rect3696-3-0-3-7"
       style="fill:url(#radialGradient3339-1-4);fill-opacity:1;stroke:none" />
    <rect
       width="28"
       height="7.0000005"
       x="10"
       y="40"
       id="rect3700-5-6-8-4"
       style="fill:url(#linearGradient6394);fill-opacity:1;stroke:none" />
  </g>
  <rect
     width="55"
     height="55"
     rx="2.8205128"
     ry="2.8205128"
     x="4.4999986"
     y="4.5000019"
     id="rect5505-21"
     style="color:#000000;display:inline;overflow:visible;visibility:visible;fill:url(#radialGradient5521-1);fill-opacity:1;fill-rule:nonzero;stroke:none;stroke-width:0.99999994;marker:none;enable-background:accumulate" />
  <rect
     width="53"
     height="53.142479"
     rx="2"
     ry="2"
     x="5.4999986"
     y="5.4287739"
     id="rect6741-5-0-2-3"
     style="opacity:0.5;fill:none;stroke:url(#linearGradient3381-5-4);stroke-width:1;stroke-linecap:round;stroke-linejoin:round;stroke-miterlimit:4;stroke-dasharray:none;stroke-dashoffset:0;stroke-opacity:1" />
  <rect
     width="55"
     height="55"
     rx="3"
     ry="3"
     x="4.4999986"
     y="4.5000019"
     id="rect5505-21-3-8-9-1-1"
     style="color:#000000;display:inline;overflow:visible;visibility:visible;opacity:0.4;fill:#000000;stroke:#004264;stroke-width:1;stroke-linecap:round;stroke-linejoin:round;stroke-miterlimit:4;stroke-dasharray:none;stroke-dashoffset:0;stroke-opacity:1;marker:none;enable-background:accumulate;clip-rule:nonzero;isolation:auto;mix-blend-mode:normal;color-interpolation:sRGB;color-interpolation-filters:linearRGB;solid-color:#000000;solid-opacity:1;fill-opacity:0;fill-rule:nonzero;filter-blend-mode:normal;filter-gaussianBlur-deviation:0;color-rendering:auto;image-rendering:auto;shape-rendering:auto;text-rendering:auto" />
  <path
     d="M 29,16.003906 A 0.99698445,0.99698445 0 0 0 28.003906,17 l 0,16.003906 -8.695312,0 a 0.99698445,0.99698445 0 0 0 -0.738282,1.666016 l 12.691407,14 a 0.99698445,0.99698445 0 0 0 1.476562,0 l 12.691407,-14 a 0.99698445,0.99698445 0 0 0 -0.738282,-1.666016 l -8.695312,0 0,-16.003906 A 0.99698445,0.99698445 0 0 0 35,16.003906 l -6,0 z"
     id="path3616"
     style="color:#000000;clip-rule:nonzero;display:inline;overflow:visible;visibility:visible;opacity:0.05;isolation:auto;mix-blend-mode:normal;color-interpolation:sRGB;color-interpolation-filters:linearRGB;solid-color:#000000;solid-opacity:1;fill:#000000;fill-opacity:1;fill-rule:nonzero;stroke:none;stroke-width:1.4102564;stroke-linecap:butt;stroke-linejoin:miter;stroke-miterlimit:4;stroke-dasharray:none;stroke-dashoffset:0;stroke-opacity:1;marker:none;color-rendering:auto;image-rendering:auto;shape-rendering:auto;text-rendering:auto;enable-background:accumulate;filter-blend-mode:normal;filter-gaussianBlur-deviation:0" />
  <path
     style="color:#000000;display:inline;overflow:visible;visibility:visible;fill:#000000;fill-opacity:1;fill-rule:nonzero;stroke:none;stroke-width:1;marker:none;enable-background:accumulate;clip-rule:nonzero;opacity:0.15;isolation:auto;mix-blend-mode:normal;color-interpolation:sRGB;color-interpolation-filters:linearRGB;solid-color:#000000;solid-opacity:1;stroke-linecap:butt;stroke-linejoin:miter;stroke-miterlimit:4;stroke-dasharray:none;stroke-dashoffset:0;stroke-opacity:1;filter-blend-mode:normal;filter-gaussianBlur-deviation:0;color-rendering:auto;image-rendering:auto;shape-rendering:auto;text-rendering:auto"
     id="rect3005-5-2"
     d="m 29.000001,17 0,17 -9.69231,0 12.692308,14 12.692307,-14 -9.692305,0 0,-17 z" />
  <path
     style="color:#000000;display:inline;overflow:visible;visibility:visible;fill:#ffffff;fill-opacity:1;fill-rule:nonzero;stroke:none;stroke-width:1;marker:none;enable-background:accumulate"
     id="rect3005-5"
     d="m 29.000001,16 0,17 -9.69231,0 12.692308,14 12.692307,-14 -9.692305,0 0,-17 z" />
</svg>

<svg xmlns="http://www.w3.org/2000/svg" xmlns:xlink="http://www.w3.org/1999/xlink" viewBox="0 0 64 64"><defs><linearGradient gradientTransform="matrix(1.43243 0 0 1.43628 -2.378 -2.47)" gradientUnits="userSpaceOnUse" xlink:href="#a" id="j" y2="43" x2="24" y1="5" x1="24"/><linearGradient id="a"><stop offset="0" stop-color="#fff"/><stop offset=".063" stop-color="#fff" stop-opacity=".235"/><stop offset=".951" stop-color="#fff" stop-opacity=".157"/><stop offset="1" stop-color="#fff" stop-opacity=".392"/></linearGradient><radialGradient gradientTransform="matrix(2.00378 0 0 1.4 27.988 -17.4)" gradientUnits="userSpaceOnUse" xlink:href="#b" id="f" fy="43.5" fx="4.993" r="2.5" cy="43.5" cx="4.993"/><linearGradient id="b"><stop offset="0" stop-color="#181818"/><stop offset="1" stop-color="#181818" stop-opacity="0"/></linearGradient><radialGradient gradientTransform="matrix(2.00378 0 0 1.4 -20.012 -104.4)" gradientUnits="userSpaceOnUse" xlink:href="#c" id="g" fy="43.5" fx="4.993" r="2.5" cy="43.5" cx="4.993"/><linearGradient id="c"><stop offset="0" stop-color="#181818"/><stop offset="1" stop-color="#181818" stop-opacity="0"/></linearGradient><linearGradient id="d"><stop offset="0" stop-color="#181818" stop-opacity="0"/><stop offset=".5" stop-color="#181818"/><stop offset="1" stop-color="#181818" stop-opacity="0"/></linearGradient><linearGradient gradientUnits="userSpaceOnUse" xlink:href="#d" id="h" y2="39.999" x2="25.058" y1="47.028" x1="25.058"/><radialGradient cx="7.85" cy="9.957" r="12.672" fx="7.32" fy="9.957" id="i" xlink:href="#e" gradientUnits="userSpaceOnUse" gradientTransform="matrix(0 8.34677 -16.44353 0 196.902 -78.65)"/><linearGradient id="e"><stop offset="0" stop-color="#90dbec"/><stop offset=".262" stop-color="#42baea"/><stop offset=".705" stop-color="#3689e6"/><stop offset="1" stop-color="#2b63a0"/></linearGradient></defs><g opacity=".6"><path fill="url(#f)" d="M38 40h5v7h-5z" transform="matrix(1.57895 0 0 .7143 -5.895 27.93)"/><path transform="matrix(-1.57895 0 0 -.7143 -5.895 27.93)" fill="url(#g)" d="M-10-47h5v7h-5z"/><path fill="url(#h)" d="M10 40h28v7H10z" transform="matrix(1.57895 0 0 .7143 -5.895 27.93)"/></g><rect width="55" height="55" rx="2.821" ry="2.821" x="4.5" y="4.5" color="#000" overflow="visible" fill="url(#i)"/><rect width="53" height="53.142" rx="2" ry="2" x="5.5" y="5.429" opacity=".5" fill="none" stroke="url(#j)" stroke-linecap="round" stroke-linejoin="round"/><rect width="55" height="55" rx="3" ry="3" x="4.5" y="4.5" style="isolation:auto;mix-blend-mode:normal;filter-blend-mode:normal;filter-gaussianBlur-deviation:0" color="#000" overflow="visible" opacity=".4" stroke="#004264" stroke-linecap="round" stroke-linejoin="round" fill="none"/><path d="M29 16.004a.997.997 0 0 0-.996.996v16.004H19.31a.997.997 0 0 0-.74 1.666l12.692 14a.997.997 0 0 0 1.476 0l12.692-14a.997.997 0 0 0-.74-1.666h-8.694V17a.997.997 0 0 0-.996-.996h-6z" style="isolation:auto;mix-blend-mode:normal;filter-blend-mode:normal;filter-gaussianBlur-deviation:0" color="#000" overflow="visible" opacity=".05"/><path style="isolation:auto;mix-blend-mode:normal;filter-blend-mode:normal;filter-gaussianBlur-deviation:0" d="M29 17v17h-9.692L32 48l12.692-14H35V17z" color="#000" overflow="visible" opacity=".15"/><path d="M29 16v17h-9.692L32 47l12.692-14H35V16z" color="#000" overflow="visible" fill="#fff"/></svg>
